X: 1158
T: An Cailín Ban
R: jig
M: 6/8
K: Gmajor
DEF|:G2G GAB|DED DEG|ABc ABc|dcA AGF|
G2G GAB|DED DEG|ABc dcA|1 AGF G2D:|2 AGF GAB||
|:c2d e2f|g2g ged|B2g gfg|abg afB|
c2d e2f|gag ged|gdB c2B|1 AGF GAB:|2 AGF G3||

